X:78
M:4/4
L:1/4
K:G
B B B B | A2 A2 | G G G G | F2 F2 | E E D G | A B A2 | G4 | B B B B | A2 A2 | G G G G | F2 F2 | E E D G | A B A2 | G4 | B2 B2 | c4 | A2 A2 | B4 | !sintro!d d c B | A2 B2 | | d d c B | A2 G2 !eintro!|]
